src/rounded/icons/fi-rr-mobile.svg

<svg id="Layer_1" height="512" viewBox="0 0 24 24" width="512" xmlns="http://www.w3.org/2000/svg" data-name="Layer 1"><path d="m16 0h-8a5.006 5.006 0 0 0 -5 5v14a5.006 5.006 0 0 0 5 5h8a5.006 5.006 0 0 0 5-5v-14a5.006 5.006 0 0 0 -5-5zm3 19a3 3 0 0 1 -3 3h-3v-1a1 1 0 0 0 -2 0v1h-3a3 3 0 0 1 -3-3v-14a3 3 0 0 1 3-3h8a3 3 0 0 1 3 3zm-3-3a1 1 0 0 1 -1 1h-6a1 1 0 0 1 0-2h6a1 1 0 0 1 1 1zm-6-3a1 1 0 0 0 1-1v-1h2v1a1 1 0 0 0 2 0v-4a3 3 0 0 0 -6 0v4a1 1 0 0 0 1 1zm2-6a1 1 0 0 1 1 1v1h-2v-1a1 1 0 0 1 1-1z"/></svg>

<svg id="Layer_1" data-name="Layer 1" xmlns="http://www.w3.org/2000/svg" viewBox="0 0 24 24"><path d="M16,0H8A5.006,5.006,0,0,0,3,5V19a5.006,5.006,0,0,0,5,5h8a5.006,5.006,0,0,0,5-5V5A5.006,5.006,0,0,0,16,0Zm3,19a3,3,0,0,1-3,3H13V21a1,1,0,0,0-2,0v1H8a3,3,0,0,1-3-3V5A3,3,0,0,1,8,2h8a3,3,0,0,1,3,3Zm-3-3a1,1,0,0,1-1,1H9a1,1,0,0,1,0-2h6A1,1,0,0,1,16,16Zm-6-3a1,1,0,0,0,1-1V11h2v1a1,1,0,0,0,2,0V8A3,3,0,0,0,9,8v4A1,1,0,0,0,10,13Zm2-6a1,1,0,0,1,1,1V9H11V8A1,1,0,0,1,12,7Z"/></svg>
